X: 544
T: Dusty Sam
B: jims roots
M:2/4
L:1/16
Q: 1/4=100
K:A
V:1 
%AK/Fiddler's Companion
"A"A,2CE A2Ac | c2Bc "E"BAFA | "A"A,2CE A2Ac | "E"BABc B2e2 |
"A"A,2CE A2Ac | B2Bc "E"BAFA | "A"A,2CE A2Ac | "E"BABc "A"A4 :|
|: "A"ceee "D"dfff | "A"c2e2 "E"ecAc | "A"ceee "D"dfff | "A"c2ec "E"B4 |
"A"ceee "D"dfff | "A"c2e2 "E"ecAc | "A"A,2CE "D"A2Ac | "E"BABc "A"A4 :|
% abcbook-tune_id 6298c25d5383db5fd3d0721a


% abcbook-boost 0
% abcbook-tablature 
% abcbook-transpose 
% abcbook-lastupdated 1654178397808
% abcbook-soundfonts 
% abcbook-repeats 1


